X:900
T:'S Toigh Leam Fhim Buntata 's Im
T:I'm Fond of Potatoes and Butter
S:Julie Fowlis, Cuilidh
Z:Nigel Gatherer
M:4/4
L:1/8
K:A
c<ee>c d>ef>d | c<ee>c d>B B2 | c<ee>c d>ef>e | e>cB>d c<A A2 :|
c<ea>e f>ea>e |  c<ea>e f>B B2 | c<ea>e f>ea>f | e>cB>d c<A A2 :|
<end>
<start>
